src/fonts/icomoon/icons/cols.svg

<!-- Generated by IcoMoon.io -->
<svg version="1.1" xmlns="http://www.w3.org/2000/svg" width="1243" height="1024" viewBox="0 0 1243 1024">
<title></title>
<g id="icomoon-ignore">
</g>
<path d="M0 0h365.714v292.571h-365.714v-292.571zM438.857 0h365.714v292.571h-365.714v-292.571zM1243.429 0h-365.714v292.571h365.714v-292.571zM0 365.714h365.714v292.571h-365.714v-292.571zM804.571 365.714h-365.714v292.571h365.714v-292.571zM877.714 365.714h365.714v292.571h-365.714v-292.571zM365.714 731.429h-365.714v292.571h365.714v-292.571zM438.857 731.429h365.714v292.571h-365.714v-292.571zM1243.429 731.429h-365.714v292.571h365.714v-292.571z"></path>
</svg>

<svg xmlns="http://www.w3.org/2000/svg" width="1243" height="1024"><path d="M0 0h365.714v292.571H0V0zm438.857 0h365.714v292.571H438.857V0zm804.572 0H877.715v292.571h365.714V0zM0 365.714h365.714v292.571H0V365.714zm804.571 0H438.857v292.571h365.714V365.714zm73.143 0h365.714v292.571H877.714V365.714zm-512 365.715H0V1024h365.714V731.429zm73.143 0h365.714V1024H438.857V731.429zm804.572 0H877.715V1024h365.714V731.429z"/></svg>
